lib/brands/logos/split.svg

<svg xmlns="http://www.w3.org/2000/svg" fill="none" aria-hidden="true" viewBox="0 0 161 73"><g id="Split"><g id="Group"><path id="Vector" fill="url(#paint0_linear_93_16021)" d="M19.8295 55.8329V67.7171L55.0126 47.8122V35.928L19.8295 55.8329Z"/><path id="Vector_2" fill="#77CFFD" d="M19.8295 27.6088L55.0126 47.5154V35.6312L19.8295 15.7245V27.6088Z"/><path id="Vector_3" fill="#3195E3" d="M4.02502 36.8202L39.2099 56.7233V44.839L4.02502 24.9359V36.8202Z"/><path id="Vector_4" fill="url(#paint1_linear_93_16021)" d="M4.02502 36.8202L39.2099 56.7233V44.839L4.02502 24.9359V36.8202Z"/><path id="Vector_5" fill="#3195E3" d="M39.2099 4.73279L4.02502 24.6377V36.522L39.2099 16.6171V4.73279Z"/><path id="Vector_6" fill="#2285E1" d="M39.2107 44.8683V56.7256L28.7319 50.796L39.2107 44.8683ZM19.8295 27.5818V15.7245L30.3083 21.654L19.8295 27.5818V27.5818Z"/><path id="Vector_7" fill="black" d="M156.975 27.5292V22.9367H152.561V13.9443H147.515V22.9367H143.876V27.5292H147.515V49.7177H152.561V27.5292H156.975V27.5292ZM135.386 49.7177H140.432V22.9385H135.386V49.7213V49.7177ZM135.386 19.8433H140.432V13.9443H135.386V19.8433ZM124.081 49.7195H129.127V13.9443H124.081V49.7195V49.7195ZM114.183 36.3758C114.183 41.5009 110.401 45.8037 105.112 45.8037C99.7744 45.8037 95.9881 41.4524 95.9881 36.2804C95.9881 31.2525 99.7744 26.804 104.966 26.804C110.156 26.804 114.183 31.2993 114.183 36.3776V36.3758ZM119.229 36.6655C119.229 28.5927 113.602 22.2079 105.306 22.2079C101.473 22.2079 97.9802 23.8509 95.747 27.0415H95.648V22.9367H91.0411V58.6615H96.0871V45.8541H96.1861C98.126 49.0447 102.056 50.3961 105.648 50.3961C113.356 50.3961 119.229 44.2579 119.229 36.6673V36.6655ZM86.9669 41.8411C86.9669 36.6673 83.2797 34.4917 78.8635 33.1384C77.0208 32.5589 74.6886 32.0263 74.6886 29.6581C74.6886 27.8693 76.1462 26.8058 77.8432 26.8058C79.8803 26.8058 81.0464 28.1122 81.2893 30.045H86.3353C86.2345 25.4039 82.6966 22.2133 78.0843 22.2133C73.67 22.2133 69.6444 25.3553 69.6444 29.9496C69.6444 39.4225 81.9174 36.5234 81.9174 42.129C81.9174 44.4504 80.2672 45.8037 78.0357 45.8037C75.0305 45.8037 73.67 43.6766 73.4757 40.9215H68.4315C68.4315 45.127 70.519 48.3662 74.496 49.7681C75.6005 50.168 76.764 50.3809 77.9386 50.3979C83.0853 50.3979 86.9651 47.1102 86.9651 41.8411H86.9669Z"/></g></g><defs><linearGradient id="paint0_linear_93_16021" x1="57.9166" x2="39.0709" y1="40.1855" y2="53.3588" gradientUnits="userSpaceOnUse"><stop stop-color="#3C9FE6"/><stop offset="1" stop-color="#77CFFD"/></linearGradient><linearGradient id="paint1_linear_93_16021" x1="36.1327" x2="3.06363" y1="49.2192" y2="26.159" gradientUnits="userSpaceOnUse"><stop offset="0.36" stop-color="#2285E1"/><stop offset="0.79" stop-color="#2581CB"/></linearGradient></defs></svg>

<svg xmlns="http://www.w3.org/2000/svg" fill="none" aria-hidden="true" viewBox="0 0 161 73"><path fill="url(#a)" d="M19.83 55.833v11.884l35.183-19.905V35.928L19.829 55.833Z"/><path fill="#77CFFD" d="m19.83 27.609 35.183 19.906V35.631L19.829 15.724V27.61Z"/><path fill="#3195E3" d="M4.025 36.82 39.21 56.723V44.84L4.025 24.936V36.82Z"/><path fill="url(#b)" d="M4.025 36.82 39.21 56.723V44.84L4.025 24.936V36.82Z"/><path fill="#3195E3" d="M39.21 4.733 4.025 24.638v11.884L39.21 16.617V4.733Z"/><path fill="#2285E1" d="M39.21 44.868v11.858l-10.478-5.93 10.479-5.928ZM19.83 27.582V15.725l10.478 5.929-10.479 5.928Z"/><path fill="#000" d="M156.975 27.53v-4.593h-4.414v-8.993h-5.046v8.993h-3.639v4.592h3.639v22.189h5.046V27.529h4.414Zm-21.589 22.188h5.046v-26.78h-5.046v26.783-.003Zm0-29.875h5.046v-5.899h-5.046v5.9ZM124.081 49.72h5.046V13.944h-5.046V49.72Zm-9.898-13.343c0 5.125-3.782 9.428-9.071 9.428-5.338 0-9.124-4.352-9.124-9.524 0-5.028 3.786-9.476 8.978-9.476 5.19 0 9.217 4.495 9.217 9.573v-.001Zm5.046.29c0-8.073-5.627-14.458-13.923-14.458-3.833 0-7.326 1.643-9.56 4.833h-.098v-4.104H91.04V58.66h5.046V45.854h.099c1.94 3.19 5.87 4.542 9.462 4.542 7.708 0 13.581-6.138 13.581-13.729v-.002ZM86.967 41.84c0-5.174-3.688-7.35-8.104-8.703-1.842-.58-4.175-1.112-4.175-3.48 0-1.789 1.458-2.852 3.155-2.852 2.037 0 3.203 1.306 3.446 3.239h5.046c-.1-4.641-3.638-7.832-8.25-7.832-4.415 0-8.44 3.142-8.44 7.736 0 9.473 12.272 6.574 12.272 12.18 0 2.321-1.65 3.675-3.881 3.675-3.006 0-4.366-2.128-4.56-4.883H68.43c0 4.206 2.088 7.445 6.065 8.847 1.104.4 2.268.613 3.443.63 5.146 0 9.026-3.288 9.026-8.557h.002Z"/><defs><linearGradient id="a" x1="57.916" x2="39.071" y1="40.185" y2="53.359" gradientUnits="userSpaceOnUse"><stop stop-color="#3C9FE6"/><stop offset="1" stop-color="#77CFFD"/></linearGradient><linearGradient id="b" x1="36.133" x2="3.064" y1="49.219" y2="26.159" gradientUnits="userSpaceOnUse"><stop offset=".36" stop-color="#2285E1"/><stop offset=".79" stop-color="#2581CB"/></linearGradient></defs></svg>
